modules/feathericon/icons/map.svg

<?xml version="1.0" encoding="UTF-8"?>
<svg width="14px" height="14px" viewBox="0 0 14 14" version="1.1" xmlns="http://www.w3.org/2000/svg" xmlns:xlink="http://www.w3.org/1999/xlink">
    <!-- Generator: sketchtool 48.1 (47250) - http://www.bohemiancoding.com/sketch -->
    <title>map</title>
    <desc>Created with sketchtool.</desc>
    <defs></defs>
    <g id="web-app" stroke="none" stroke-width="1" fill="none" fill-rule="evenodd">
        <g id="map" fill="#000000">
            <path d="M2,9 L4,9 C4,9 4,12 7,12 C10,12 10,9 10,9 L12,9 L14,14 L0,14 L2,9 Z M7,10 C7,10 4,4.65685425 4,3 C4,1.34314575 5.34314575,0 7,0 C8.65685425,0 10,1.34314575 10,3 C10,4.65685425 7,10 7,10 Z M7,4 C7.55228475,4 8,3.55228475 8,3 C8,2.44771525 7.55228475,2 7,2 C6.44771525,2 6,2.44771525 6,3 C6,3.55228475 6.44771525,4 7,4 Z" id="Shape"></path>
        </g>
    </g>
</svg>

<svg width="14" height="14" viewBox="0 0 14 14" xmlns="http://www.w3.org/2000/svg"><path d="M2 9h2s0 3 3 3 3-3 3-3h2l2 5H0l2-5zm5 1S4 4.657 4 3a3 3 0 1 1 6 0c0 1.657-3 7-3 7zm0-6a1 1 0 1 0 0-2 1 1 0 0 0 0 2z" fill="#000" fill-rule="evenodd"/></svg>
